!! "Giving the People Joy", (metrically expanded piece) No. 121 from
!! Jonathan Condit, 'Music of the Korean Renaissance; Songs and dances of the
!! fifteenth century',
!! London: Cambridge University Press, 1984, ISBN 0 521 24399 8; pp.305-312
!! pluck flute
!! str.
**kern	**kern
*M12/8	*M12/8
=1	=1
4.E-	[2.ee-
4.E-	.
4.E-	4.ee-]
8E-	{8ee-
8F	8ff
8E-	8ee-}
=2	=2
4C	4.cc
8BB-	.
8C	{8cc
8E-	8ee-
8C	8cc}
8BB-	{4.bb-
8AA-	.
8BB-	.
8C	8cc
8BB-	8b-
8C	8cc}
=3	=3
4.F	[2.ff
4F	.
8A-	.
4.F	4.ff]
4F	{4ff
8A-	8aa-
=4	=4
4.F	2.ff}
4.F	.
8F	{8ff
8A-	8aa-
8B-	8bb-
4A-	4aa-
8F	8ff}
=5	=5
4.E-	2.ee-
4.E-	.
8F	{8ff
8E-	8ee-
8C	8cc
8E-	8ee-
8C	8ff
8E-	8aa-}
=6	=6
4.F	2.ff
4.F	.
8F	{8ff
8A-	8aa-
8F	8ff
8E-	8ee-
8F	8ff
8E-	8ee-}
=7	=7
4C	{4cc
8BB-	8b-
8C	8cc
8E-	8ee-
8C	8cc
8BB-	8b-
8C	8cc
8BB-	8b-
8AA-	4.a-}
8FF	.
8AA-	.
=8	=8
4.BB-	{2.b-
4.BB-	.
8C	4.cc
8E-	.
8C	.
8BB-	8b-
8C	8cc
8BB-	8b-}
=9	=9
4.AA-	2.a-
4.AA-	.
8AA-	{4.a-
8FF	.
8AA-	.
4BB-	8b-
.	4a-}
8AA-	.
=10	=10
4.FF	4.f
8FF	{8f
8AA-	8a-
8FF	8f}
4.EE-	{4.e-
8FF	8f
8EE-	8e-
8FF	8f}
=11	=11
8AA-	{4.a-
8FF	.
8AA-	.
8BB-	4.b-
8AA-	.
8BB-	.
4.C	4.cc}
4C	{4cc
8E-	8ee-
=12	=12
4.C	2.cc}
4.C	.
4C	{4cc
8F	8ff
4E-	8ee-
.	12ff
.	24ee-
8C	8cc
=13	=13
4.BB-	2.b-}
4.BB-	.
8AA-	{4.b-
8C	.
8BB-	.
8E-	8cc
8C	4b-}
8bb-	.
=14	=14
4.AA-	2.a-
4AA-	.
8BB-	.
4.AA-	{4.a-
4.AA-	4b-
.	8a-}
=15	=15
4FF	{8f
.	4e-
8EE-	.
4.FF	4.f
8FF	4a-
8AA-	.
8BB-	8b-
4AA-	4a-
8FF	8f
=16	=16
4.EE-	1.e-}
4.EE-	.
4.EE-	.
4.EE 4.BB-	.
!! Section 2.
=17	=17
4.E-	2.ee-
4.E-	.
8F	{4ee-
8E-	.
8C	8cc
8E-	8ee-
8C	8cc
8E-	8ee-}
=18	=18
4.F	2.ff
4F	.
8A-	.
4F	{4ff
8E-	8ee-
4.F	4.ff}
=19	=19
4.A-	{2.aa-
8A-	.
8B-	.
8A-	.
4.F	[4.ff
4F	4ff]
8A-	8aa-}
=20	=20
4.F	2.ff
4.F	.
8F	{8ff
8A-	8aa-
8B-	8bb-
4A-	4aa-
8F	8ff}
=21	=21
4.E-	{2.ee-
4.E-	.
4.E-	8ff
.	8ee-
.	8cc
4.EE- 4.BB-	8ee-
.	8cc
.	8ee-}
=22	=22
4.F	2.ff
4.F	.
8F	{8ff
8A-	8aa-
8F	8ff
8E-	8ee-
8F	8ff
8E-	8ee-}
=23	=23
4.AA-	{2.a-
4AA-	.
8C	.
4.BB-	2.b-}
4BB-	.
8C	.
=24	=24
4.BB-	1.b-
4.BB-	.
8C	.
8BB-	.
8AA-	.
8BB-	.
8AA-	.
8BB-	.
=25	=25
4.BB-	{2.b-
4.BB-	.
8C	8cc
8BB-	8b-
8AA-	8a-
8BB-	8b-
8AA-	8a-
8BB-	8b-}
=26	=26
4.C	2.cc
4.C	.
4C	{4cc
8BB-	8b-
4.C	4.cc}
=27	=27
4.E-	2.ee-
4.E-	.
4E-	{8ee-
.	8cc
8F	8ee-
8A-	4ff
8F	.
8E-	8ee-}
=28	=28
4C	{4cc
8BB-	8b-
4.C	4.cc
8F	4.ff
8A-	.
8F	.
8E-	8ee-
8F	8ff
8E-	8ee-}
=29	=29
4.BB-	{2.b-
4.BB-	.
8C	8cc
8BB-	8b-
8AA-	8a-
8BB-	4.b-}
8AA-	.
8BB-	.
=30	=30
4.C	{2.cc
4.C	.
8AA-	8ff
8C	8ee-
8BB-	8cc
8E-	8ee-
8C	8cc
8BB-	8b-}
=31	=31
4.AA-	[{2.a-
4AA-	.
8BB-	.
4.AA-	4.a-_
4AA-	4a-]
8BB-	8b-}
=32	=32
4.AA-	1.a-
4.AA-	.
4.AA-	.
4.EE- 4.BB-	.
!! Section 3.
=33	=33
4.A-	2.aa-
4.A-	.
4A-	{4aa-
8F	8ff
8A-	4.aa-}
8B-	.
8A-	.
=34	=34
4.F	2.ff
4F	.
8A-	.
4F	{4ff
8E-	8ee-
4.F	4.ff}
=35	=35
4.A-	4.aa-
8A-	{8aa-
8B-	8bb-
8A-	8aa-}
4.F	[{4.ff
4F	4ff]
8A-	8aa-}
=36	=36
4.F	2.ff
4.F	.
8F	{8ff
8A-	8aa-
8B-	8bb-
4A-	4aa-
8F	8ff}
=37	=37
4.E-	{2.ee-
4.E-	.
4.E-	8ff
.	8ee-
.	8cc
4.EE- 4.BB-	8ee-
.	8cc
.	8ee-}
=38	=38
8F	2.ff
8E-	.
8F	.
4A-	.
8A-	.
8F	{8ff
8A-	8aa-
8F	8ff
8E-	8ee-
8F	8ff
8E-	8ee-}
=39	=39
4.BB-	{2.b-
4BB-	.
8E-	.
4.C	[4.cc
4C	4cc]
8E-	8ee-}
=40	=40
4.C	[{2.cc
4.C	.
4C	4.cc_
8BB-	.
4.C	4cc]
.	8ee-}
=41	=41
4.C	2.cc
4.C	.
4C	{4cc
8BB-	8b-
4.C	4.cc}
=42	=42
4.F	2.ff
4.F	.
8F	{8ff
8A-	8aa-
8F	8ff
8E-	8ee-
8F	8ff
8E-	8ee-}
=43	=43
4C	{4.cc
8BB-	.
8C	8ee-
8E-	4cc
8C	.
8BB-	8b-
8C	8cc
8BB-	8b-
8AA-	4.a-}
8FF	.
8AA-	.
=44	=44
4.BB-	{2.b-
4.BB-	.
8C	4.cc
8E-	.
8C	.
8BB-	8b-
8C	8cc
8BB-	8b-}
=45	=45
4.AA-	1.a-
4.AA-	.
4.AA-	.
4.EE- 4.BB-	.
=46	=46
4.BB-	[{4.b-
8BB-	8b-]
8C	8cc
8BB-	8b-
4.AA-	[4.a-
8AA-	8a-]
8BB-	8b-
8AA-	8a-}
=47	=47
4FF	{4f
8EE-	8e-
4.FF	4.f
8FF	4a-
8AA-	.
8BB-	8b-
4AA-	4a-
8FF	8f
=48	=48
4.EE-	1.e-}
4.EE-	.
4.EE-	.
4.EE- 4.BB-	.
!! Section 4.
=49	=49
4.F	2.ff
4.F	.
8A-	{4.ff
8F	.
8E-	.
8F	8aa-
8E-	8ff
8F	8ee-}
=50	=50
4.C	2.cc
4.C	.
4C	{4cc
8BB-	8b-
4.C	4.cc}
=51	=51
4.E-	{2.ee-
4E-	.
8A-	.
4.F	[4.ff
4F	4ff]
8A-	8aa-}
=52	=52
4.F	2.ff
4.F	.
8F	{8ff
8A-	8aa-
8B-	8bb-
4A-	4aa-
8F	8ff}
=53	=53
4.BB-	2.b-
4.BB-	.
8AA-	8a-
8C	4a-
8BB-	.
8E-	4b-
8C	.
8BB-	8b-
=54	=54
4.AA-	1.a-
4AA-	.
8BB-	.
4.AA-	.
4.AA-	.
=55	=55
8AA-	{4.a-
8FF	.
8AA-	.
8C	4.cc
8BB-	.
8C	.
8BB-	8b-
8C	8cc
8BB-	8b-
8AA-	4.a-}
8FF	.
8AA-	.
=56	=56
4.BB-	{2.b-
4.BB-	.
8C	8cc
8BB-	8b-
8AA-	8a-
8BB-	4.b-}
8AA-	.
8BB-	.
=57	=57
4.C	2.cc
4.C	.
4C	{4.cc
8BB-	.
4.C	8ee-
.	4cc}
=58	=58
4.BB-	{2.b-
4.BB-	.
4C	4cc
8BB-	8b-
4.C	4.cc}
=59	=59
4.E-	2.ee-
4.E-	.
4E-	{8ee-
.	8cc
8F	8ee-
8A-	4ff
8F	.
8E-	8ee-}
=60	=60
4C	{4cc
8BB-	8b-
4.C	4.cc
8F	4.ff
8A-	.
8F	.
8E-	8ee-
8F	8ff
8E-	8ee-}
=61	=61
4.BB-	{2.b-
4.BB-	.
8C	8c
8BB-	8b-
8AA-	8a-
8BB-	4.b-}
8AA-	.
8BB-	.
=62	=62
4.C	{2.cc
4.C	.
8C	8ff
8E-	8ee-
8C	8cc
8BB-	8ee-
8C	8cc
8BB-	8b-}
=63	=63
4.AA-	[{2.a-
4AA-	.
8BB-	.
4.AA-	4.a-_
4AA-	4a-]
8BB-	8b-}
=64	=64
4.AA-	1.a-
4.AA-	.
4.AA-	.
4.EE- 4.BB-	.
!! Section 5.
=65	=65
4.F	2.ff
4.F	.
8A-	{8ff
8F	4ee-
8E-	.
8F	4.ff}
8E-	.
8F	.
=66	=66
4.A-	{2.aa-
4.A-	.
8F	8ff
8A-	8aa-
8F	8ff
8E-	8ee-
8F	8ff
8E-	8ee-}
=67	=67
4C	{4cc
8BB-	8b-
4.C	4.cc
4.E-	2.ee-}
4E-	.
8F	.
=68	=68
4.E-	{2.ee-
4.EE- 4.BB-	.
8F	8ff
8A-	8aa-
8F	8ff
8E-	8ee-
8F	8ff
8E-	8ee-}
=69	=69
4.C	{2.cc
4.C	.
8F	8ff
8E-	8ee-
8C	8cc
8BB-	8b-
8C	8cc
8BB-	8b-}
=70	=70
8AA-	{4.a-
8FF	.
8AA-	.
4BB-	4b-
8AA-	8a-
4FF	2.f}
8EE-	.
4.FF	.
=71	=71
8AA-	{4.a-
8FF	.
8AA-	.
8BB-	4.b-
8AA-	.
8BB-	.
4.C	[4.cc
4C	4cc]
8E-	8ee-}
=72	=72
4.C	2.cc
4.C	.
4C	{4cc
8BB-	8b-
8C	4.cc}
8BB-	.
8C	.
=73	=73
4.E-	1.ee-
4.E-	.
4.E-	.
4.EE- 4.BB-	.
=74	=74
4.F	2.ff
4.F	.
8F	{8ff
8A-	8aa-
8F	8ff
8E-	8ee-
8F	8ff
8E-	8ee-}
=75	=75
4C	{4.cc
8BB-	.
8C	4ee-
8E-	.
8C	8cc
8BB-	8b-
8C	8cc
8BB-	8b-
8AA-	4.a-}
8BB-	.
8C	.
=76	=76
4.BB-	{2.b-
4.BB-	.
8C	4.cc
8E-	.
8C	.
8BB-	8b-
8C	8cc
8BB-	8b-}
=77	=77
4.AA-	1.a-
4.AA-	.
4.AA-	.
4.EE- 4.BB-	.
=78	=78
4.BB-	4.b-
8BB-	{8b-
8C	8cc
8BB-	8b-}
4.AA-	4.a-
8AA-	{8a-
8BB-	8b-
8AA-	8a-}
=79	=79
4FF	{4f
8EE-	8e-
4.FF	4.f
8FF	4a-
8AA-	.
8BB-	8b-
4AA-	4a-
8FF	8f
=80	=80
4.EE-	1.e-}
4.EE-	.
4.EE-	.
4.EE- 4.BB-	.
!! Section 6.
=81	=81
4.F	2.ff
4.F	.
8A-	{8ff
8F	4ee-
8E-	.
8F	4.ff}
8E-	.
8F	.
=82	=82
4.B-	1.bb-
4.B-	.
4.B-	.
4.B-	.
=83	=83
4A-	{4.bb-
8F	.
8A-	8aa-
8B-	8bb-
8A-	8aa-
4.F	[4.ff
4F	4ff]
8A-	8aa-}
=84	=84
4.F	2.ff
4.F	.
8F	{8ff
8A-	8aa-
8B-	8bb-
4A-	4aa-
8F	8ff}
=85	=85
4.E-	{2.ee-
4.E-	.
4.E-	8ff
.	8ee-
.	8cc
4.F	4.ee-}
=86	=86
4.A-	{4.ff
4.A-	4.aa-
8F	8ff
8A-	8a-
8F	8ff
8E-	8ee-
8F	8ff
8E-	8ee-}
=87	=87
8C	{4.cc
8BB-	.
8C	.
4E-	4ee-
8D-	8dd-
4.BB-	2.b-}
4BB-	.
8C	.
=88	=88
4.BB-	{2.b-
4.BB-	.
8C	8cc
8BB-	8b-
8AA-	8a-
8BB-	4.b-}
8AA-	.
8BB-	.
=89	=89
4.C	2.cc
4.C	.
4C	{4cc
8BB-	8b-
4.C	4.cc}
=90	=90
4.E-	1.ee-
4.E-	.
4.E-	.
4.EE- 4.BB-	.
=91	=91
4.F	{2.ff
4.F	.
4E-	4.ee-
8F	.
8A-	4ff
8F	.
8E-	8ee-}
=92	=92
4C	{4cc
8BB-	8b-
4.C	4.cc
8F	4.ff
8A-	.
8F	.
8E-	8ee-
8F	8ff
8E-	8ee-}
=93	=93
4.BB-	{2.b-
4.BB-	.
8C	8cc
8BB-	8b-
8AA-	8a-
8BB-	4.b-}
8AA-	.
8BB-	.
=94	=94
4.C	{2.cc
4.C	.
8AA-	8ff
8C	8ee-
8BB-	8cc
8E-	8ee-
8C	8cc
8BB-	8b-}
=95	=95
4.AA-	1.a-
4.AA-	.
4.AA-	.
4.AA-	.
=96	=96
4.AA-	1.a-
4.AA-	.
4.AA-	.
4.EE- 4.BB-	.
!! Section 7.
=97	=97
4.B-	1.bb-
4.B-	.
4.B-	.
4.B-	.
=98	=98
4.F	2.ff
4F	.
8A-	.
4F	{4ff
8E-	8ee-
4.F	4.ff}
=99	=99
4A-	{2.aa-
8F	.
8A-	.
8B-	.
8A-	.
4.F	[4.ff
4F	4ff]
8A-	8aa-}
=100	=100
4.F	2.ff
4.F	.
8F	{8ff
8A-	8aa-
8B-	8bb-
4A-	4aa-
8F	8ff}
=101	=101
4.E-	{2.ee-
4.E-	.
4.E-	8ff
.	4ee-
4.C	4.cc}
=102	=102
4.A-	{2.aa-
4.A-	.
8F	8ff
8A-	8aa-
8F	8ff
8E-	8ee-
8F	8ff
8E-	8ee-}
=103	=103
8C	{4.cc
8BB-	.
8C	.
4E-	4ee-
8D-	8dd-
4.BB-	4.b-
4.AA-	4.a-}
=104	=104
4.C	2.cc
4.C	.
4C	{4cc
8BB-	8b-
4.C	4.cc}
=105	=105
4.F	1.ff
4.F	.
4.F	.
4.F	.
=106	=106
4.E-	2.ee-
4.E-	.
4E-	{4.ee-
8F	.
8A-	4ff
8F	.
8E-	8ee-}
=107	=107
4C	{4.cc
8BB-	.
8C	4ee-
8E-	.
8C	8cc
8BB-	8b-
8C	8cc
8BB-	8b-
8AA-	4.a-}
8FF	.
8AA-	.
=108	=108
4.BB-	{2.b-
4.BB-	.
8C	4.cc
8E-	.
8C	.
8BB-	8b-
8C	8cc
8BB-	8b-}
=109	=109
4.AA-	1.a-
4.AA-	.
4.AA-	.
4.EE- 4.BB-	.
=110	=110
4.BB-	[{4.b-
8BB-	8b-]
8C	8cc
8BB-	8b-
4.AA-	[4.a-
8AA-	8a-]
8BB-	8b-
8AA-	8a-}
=111	=111
4FF	{4f
8EE-	8e-
4.FF	4.f
8FF	4f
8AA-	.
8BB-	8b-
4AA-	4a-
8FF	8f
=112	=112
4.EE-	1.e-}
4.EE-	.
4.EE-	.
4.EE- 4.BB-	.
=113	=113
4.AA-	2.a-
4.AA-	.
4AA-	{4a-
8FF	8f
4.AA-	4.a-}
=114	=114
4.C	2.cc
4.C	.
4C	{4cc
8BB-	8b-
4.C	4.cc}
=115	=115
4.E-	{2.ee-
4E-	.
8A-	.
4.F	4.ff
4F	4aa-}
8A-	8aa-
=116	=116
4.F	2.ff
4.F	.
8F	{8ff
8A-	8aa-
8B-	8bb-
4A-	4aa-
8f	8ff}
=117	=117
4.E-	2.ee-
4.E-	.
4E-	{4.ee-
8F	.
8A-	4ff
8F	.
8E-	8ee-}
=118	=118
4c	{4cc
8BB-	8b-
4.C	4.cc
8F	4.ff
8A-	.
8F	.
8E-	8ee-
8F	8ff
8E-	8ee-}
=119	=119
4C	{4cc
8BB-	8b-
8C	4.cc
8E-	.
8C	.
8BB-	8b-
8C	8cc
8BB-	8b-
8AA-	4.a-}
8FF	.
8AA-	.
=120	=120
4.BB-	{2.b-
4.BB-	.
8C	8cc
8E-	8ee-
8C	8cc
8BB-	8b-
8C	8cc
8BB-	8b-}
=121	=121
4.AA-	2.a-
4.AA-	.
8AA-	{4.a-
8FF	.
8AA-	.
4BB-	4b-
8AA-	8a-}
=122	=122
4.FF	4.f
4.FF	{8f
.	8a-
.	8f
4.EE-	4.e-
4.FF	4.f}
=123	=123
4.AA-	1.a-
4.AA-	.
4.AA-	.
4.EE- 4.BB-	.
=124	=124
8AA-	{4.a-
8FF	.
8AA-	.
4BB-	4b-
8AA-	8a-
4.FF	2.f}
4.FF	.
!! Section 8.
=125	=125
4.C	{2.cc
4.C	.
8C	8ee-
8E-	4cc
8C	.
8BB-	8b-
8C	8cc
8BB-	8b-}
=126	=126
4.AA-	{2.a-
4.AA-	.
8C	4.ee-
8E-	.
8C	.
8BB-	8b-
8C	8cc
8BB-	8b-}
=127	=127
4.AA-	{2.a-
4AA-	.
8C	.
4.BB-	2.b-}
4BB-	.
8C	.
=128	=128
4.BB-	1.b-
4.BB-	.
4.BB-	.
4.EE- 4.BB-	.
!! Section 9.
=129	=129
4.F	2.ff
4.F	.
8A-	{4.ff
8F	.
8E-	.
8F	8aa-
8E-	8ff
8F	8ee-}
=130	=130
4.C	2.cc
4.C	.
4C	{4cc
8BB-	8b-
4.C	4.cc}
=131	=131
4.F	2.ff
4.F	.
4F	{4ff
8E-	8ee-
4.F	4.ff}
=132	=132
4.A-	{2.aa-
4.A-	.
4.F	4.ff
8F	8ff
8A-	8aa-
8F	8ff}
=133	=133
4.E-	4.ee-
8E-	{8ee-
8F	8ff
8E-	8ee-
4C	4cc
8BB-	8b-
4.C	4.cc}
=134	=134
4.F	2.ff
4.F	.
4.F	{8ff
.	8aa-
.	8ff
8E-	8ee-
8F	8ff
8E-	8ee-}
=135	=135
4.c	{4cc
.	8b-
4.C	4.cc
4.E-	2.ee-}
4E-	.
8F	.
=136	=136
4.E-	2.ee-
4.E-	.
4.E-	{8ff
.	4aa-}
4.EE- 4.BB-	{4aa-
.	8ff}
=137	=137
4.BB-	2.b-
4.BB-	.
4.C	{8b-
.	4a-
8BB-	8cc
8C	4b-}
8BB-	.
=138	=138
4.AA-	2.a-
4.AA-	.
8FF	{8a-
8BB-	8b-
8AA-	8a-
8BB-	4.f}
8AA-	.
8FF	.
=139	=139
4.BB-	1.b-
4BB-	.
8C	.
4.BB-	.
4BB-	.
8C	.
=140	=140
4.BB-	{2.b-
4BB-	.
8C	.
4.BB-	8cc
.	8b-
.	8a-
4.EE- 4.BB-	4.b-}
=141	=141
4.C	{2.cc
4.C	.
4E-	4ee-
8F	8ff
4E-	8ee-
.	4cc}
8C	.
=142	=142
4.BB-	{2.b-
4.BB-	.
8C	4.cc
8E-	.
8C	.
8BB-	8b-
8C	8cc
8BB-	8b-}
=143	=143
4.AA-	1.a-
4AA-	.
8BB-	.
4.AA-	.
4AA-	.
8BB-	.
=144	=144
4.AA-	1.a-
4.AA-	.
4.AA-	.
4.EE- 4.BB-	.
!! Section 10.
=145	=145
4.BB-	2.b-
4.BB-	.
8C	{4b-
8BB-	.
8AA-	8a-
8BB-	4.b-}
8AA-	.
8BB-	.
=146	=146
4.C	2.cc
4.C	.
8C	{4.cc
8E-	.
8C	.
8BB-	8b-
8c	8cc
8BB-	8b-}
=147	=147
4.AA-	{2.a-
4AA-	.
8C	.
4.BB-	2.b-}
4BB-	.
8C	.
=148	=148
4.BB-	{2.b-
4.BB-	.
8C	8cc
8BB-	8b-
8AA-	8a-
8BB-	4.b-}
8AA-	.
8BB-	.
=149	=149
4.C	2.cc
4.C	.
4C	{4.cc
8BB-	.
4.C	4ee-
.	8cc}
=150	=150
4.BB-	{2.b-
4.BB-	.
4C	4cc
8BB-	8b-
4.C	4.cc}
=151	=151
4.E-	1.ee-
4.E-	.
4.E-	.
4.EE- 4.BB-	.
=152	=152
4E-	{4.ee-
8F	.
8A-	8ff
8F	4ee-
8E-	.
4C	4cc
8BB-	8b-
4.C	4.cc}
=153	=153
4.F	1.ff
4.F	.
4.F	.
4.F	.
=154	=154
4.AA-	{2.a-
4.AA-	.
8C	4.cc
8E-	.
8C	.
8BB-	8b-
8C	8cc
8BB-	8b-}
=155	=155
4.AA-	{4.a-
8BB-	4.b-
8AA-	.
8BB-	.
4.C	[4.cc
4.C	4cc]
.	8ee-}
=156	=156
4.C	2.cc
4.C	.
4C	{8cc
.	8ff
8BB-	8ee-
4.C	8ff
.	8ee-
.	8cc}
=157	=157
4.BB-	2.b-
4.BB-	.
8BB-	{8b-
8AA-	4a-
8BB-	.
4C	4cc
8BB-	8b-}
=158	=158
4.AA-	2.a-
4.AA-	.
4.AA-	{4.a-
4.AA-	4b-
.	8a-}
=159	=159
4FF	{4f
8EE-	8e-
4.FF	4.f
8FF	4a-
8AA-	.
8BB-	8b-
4AA-	4a-
8FF	8f
=160	=160
4.EE-	1.e-}
4.EE-	.
4.EE-	.
4.EE- 4.BB-	.
====	====
*-	*-
